X: 1513
T: Niçin Nâlendesin Öyle
C: Nikoğos Ağa
O: Turkey
F: http://compmusic.upf.edu/node/140
N: huzzam--sarki--duyek--nicin_nalendesin--nikogos_aga
N: makam= huzzam
N: form= sarki
N: usul= duyek = 8/4
M: 8/4
L: 1/16
K: C _1/4B _3/4e ^3/4f 
Q: 1/4=132
%%MIDI tuningsystem comma53
G2 B4 d2 c2 {e}dc B3/2A/ G2  | Bc d4 f2 e2 {g}fe d3/2c/ B2  | \
w:  ARANAĞME  |   | 
z2 d2 c2 B2 A3G f2 ed  | 
w:   | 
d2 c4 cB B3c Bc BA  | G2 B4 d2 c2 {e}dc B3/2A/ G2  | \
w:   |  ARANAĞME  | 
Bc d4 f2 e2 {g}fe d3/2c/ B2  | 
w:   | 
z2 d2 c2 B2 A3G f2 ed  | d2 c4 cB B3c Bc d2  | \
w:   |   | 
c2 d6 d4 gf ed  | 
w:  Ni *  çin  nâ  | 
c2 d6 e3/2d/ ce dc2B  | B2 de gf ed d2 cB f2 ed  | 
w:  len  |  *  de *  *  *  *  *  sin  *  *  öy  | 
c2 d6 e3/2d/ ce dc2B  | c2 d6 d4 gf ed  | \
w:  le   *  SAZ  |  Ni *  çin  nâ  | 
c2 d6 e3/2d/ ce dc2B  | 
w:  len  | 
B2 de gf ed d2 cB f2 ed  | c2 d4 B2 c2 Bc d4  | \
w:  *  de *  *  *  *  *  sin  *  *  öy  |  le   *  SAZ  | 
z2 B4 d2 dc {e}dc B3/2A/ G2  | 
w:  Gö *  nül  *  *  *  *  der  | 
G2 Bc d2 f2 e2 {g}fe d3/2c/ B2  | \
w:  *  din   | 
z2 c4 cB A3G f2 ed  | d2 c4 cB B3A Bc d2  | 
w:  ne *  *  dir  *  söy  |  le  *  a *  man    | 
z2 B4 d2 dc {e}dc B3/2A/ G2  | G2 Bc d2 f2 e2 {g}fe d3/2c/ B2  | 
w:  Gö *  nül  *  *  *  *  der  |  *  din   | 
z2 c4 cB A3G f2 ed  | d2 c4 cB B3g fa g2  | \
w:  ne *  *  dir  *  söy  |  le  *  a *  man    | 
f2 g6 gf {a}gf f3/2e/ d2  | 
w:  Se *  ni  *  *  *  *  ben   | 
ef g4 fe f2 ed e3/2d/ c2  | c2 de gf ed dc2B f2 ed  | 
w:  is  |  *  te *  *  *  *  *  sem  *  *  böy  | 
c2 d6 g2 fa g4  | f2 g6 gf {a}gf f3/2e/ d2  | \
w:  le   *  SAZ  |  Se *  ni  *  *  *  *  ben   | 
ef g4 fe f2 ed e3/2d/ c2  | 
w:  is  | 
c2 de gf ed dc2B f2 ed  | c2 d6 e3/2d/ ce dc2B  | 
w:  *  te *  *  *  *  *  sem  *  *  böy  |  le   *  SAZ  | 
z2 B4 d2 dc {e}dc B3/2A/ G2  | G2 Bc d2 f2 e2 {g}fe d3/2c/ B2  | 
w:  Gö *  nül  *  *  *  *  der  |  *  din   | 
z2 c4 cB A3G f2 ed  | d2 c4 cB B3A Bc d2  | \
w:  ne *  *  dir  *  söy  |  le  *  a *  man    | 
z2 B4 d2 dc {e}dc B3/2A/ G2  | 
w:  Gö *  nül  *  *  *  *  der  | 
G2 Bc d2 f2 e2 {g}fe d3/2c/ B2  | \
w:  *  din   | 
z2 c4 cB A3G f2 ed  | d2 c4 cB B8  | 
w:  ne *  *  dir  *  söy  |  le  KARAR a *  man    | 
|


